;FLAVOR:Marlin
;TIME:2077
;Filament used: 4.77023m
;Layer height: 0.2
;MINX:130.2
;MINY:95.2
;MINZ:0.3
;MAXX:169.8
;MAXY:204.8
;MAXZ:3.1
;Generated with Cura_SteamEngine 5.0.0
M140 S60
M105
M190 S60
M104 S220
M105
M109 S220
M82 ;absolute extrusion mode
START
G1 F200 E15 ;extrude 15 mm of feed stock
G1 F200 E13.5 ;make retraction
G92 E0 ;zero the extruded length again
G92 E0
G92 E0
G1 F1500 E-4
;LAYER_COUNT:15
;LAYER:0
M107
;MESH:cover_v3.stl
G0 F4800 X132.303 Y98.995 Z0.3
;TYPE:WALL-OUTER
G1 F1500 E0
G1 F4800 X132.363 Y98.553 E0.02225
G1 X132.54 Y98.128 E0.04522
G1 X132.801 Y97.797 E0.06625
G1 X133.155 Y97.528 E0.08843
G1 X133.564 Y97.36 E0.11049
G1 X134.005 Y97.303 E0.13268
G1 X134.447 Y97.363 E0.15493
G1 X134.872 Y97.54 E0.1779
G1 X135.203 Y97.801 E0.19893
G1 X135.472 Y98.155 E0.22111
G1 X135.64 Y98.564 E0.24317
G1 X135.696 Y98.952 E0.26273
G1 X135.637 Y99.447 E0.2876
G1 X135.46 Y99.872 E0.31057
G1 X135.199 Y100.203 E0.3316
G1 X134.845 Y100.472 E0.35378
G1 X134.403 Y100.645 E0.37746
G1 X133.995 Y100.697 E0.39798
G1 X133.553 Y100.637 E0.42023
G1 X133.128 Y100.46 E0.4432
G1 X132.797 Y100.199 E0.46423
G1 X132.528 Y99.845 E0.48641
G1 X132.359 Y99.436 E0.50849
G1 X132.303 Y98.995 E0.53067
G0 X132.329 Y98.797
G0 X131.922 Y98.747
G0 X132.014 Y99.475
G0 X136.89 Y110
G0 X137.3 Y110
G1 X137.355 Y109.862 E0.53808
G1 X137.5 Y109.8 E0.54595
G1 X162.517 Y109.8 E1.79405
G1 X162.645 Y109.862 E1.80115
G1 X162.7 Y110 E1.80856
G1 X162.7 Y124 E2.50702
G1 X162.636 Y124.147 E2.51502
G1 X162.5 Y124.2 E2.5223
G1 X161.919 Y124.2 E2.55129
G1 X137.473 Y124.199 E3.77091
G1 X137.338 Y124.119 E3.77874
G1 X137.3 Y124 E3.78497
G1 X137.3 Y110 E4.48343
G0 X137.355 Y109.862
G0 X137.403 Y109.842
G0 X137.403 Y109.39
G0 X136.962 Y124.538
G0 X138.464 Y137.4
G0 X138.869 Y137.453
G1 X139.082 Y136.921 E4.51202
G1 X139.426 Y136.462 E4.54064
G1 X139.875 Y136.108 E4.56916
G1 X140.402 Y135.883 E4.59775
G1 X140.974 Y135.801 E4.62658
G1 X141.547 Y135.869 E4.65537
G1 X142.079 Y136.082 E4.68396
G1 X142.538 Y136.426 E4.71257
G1 X142.892 Y136.875 E4.7411
G1 X143.117 Y137.402 E4.76969
G1 X143.199 Y137.974 E4.79852
G1 X143.131 Y138.547 E4.8273
G1 X142.918 Y139.079 E4.85589
G1 X142.574 Y139.538 E4.88451
G1 X142.125 Y139.892 E4.91304
G1 X141.598 Y140.117 E4.94163
G1 X141.026 Y140.199 E4.97045
G1 X140.453 Y140.131 E4.99924
G1 X139.921 Y139.918 E5.02783
G1 X139.462 Y139.574 E5.05645
G1 X139.108 Y139.125 E5.08497
G1 X138.883 Y138.598 E5.11356
G1 X138.801 Y138.026 E5.14239
G1 X138.869 Y137.453 E5.17118
G0 X138.943 Y137.268
G0 X138.563 Y137.11
G0 X139.194 Y136.194
G0 X139.723 Y135.789
G0 X140.339 Y135.533
G0 X141 Y135.446
G0 X141.594 Y135.524
G0 X147.395 Y138.078
G0 X147.801 Y138.026
G1 X147.869 Y137.453 E5.19997
G1 X148.082 Y136.921 E5.22856
G1 X148.426 Y136.462 E5.25717
G1 X148.875 Y136.108 E5.2857
G1 X149.402 Y135.883 E5.31429
G1 X149.974 Y135.801 E5.34312
G1 X150.547 Y135.869 E5.3719
G1 X151.079 Y136.082 E5.40049
G1 X151.538 Y136.426 E5.42911
G1 X151.892 Y136.875 E5.45764
G1 X152.117 Y137.402 E5.48622
G1 X152.199 Y137.974 E5.51505
G1 X152.131 Y138.547 E5.54384
G1 X151.918 Y139.079 E5.57243
G1 X151.574 Y139.538 E5.60105
G1 X151.125 Y139.892 E5.62957
G1 X150.598 Y140.117 E5.65816
G1 X150.026 Y140.199 E5.68699
G1 X149.453 Y140.131 E5.71578
G1 X148.921 Y139.918 E5.74437
G1 X148.462 Y139.574 E5.77299
G1 X148.108 Y139.125 E5.80151
G1 X147.883 Y138.598 E5.8301
G1 X147.801 Y138.026 E5.85893
G0 X147.824 Y137.828
G0 X147.415 Y137.775
G0 X147.789 Y136.723
G0 X148.194 Y136.194
G0 X148.723 Y135.789
G0 X149.339 Y135.533
G0 X150 Y135.446
G0 X150.594 Y135.524
G0 X156.395 Y138.078
G0 X156.801 Y138.026
G1 X156.8 Y137.982 E5.86112
G1 X156.869 Y137.453 E5.88774
G1 X157.082 Y136.921 E5.91633
G1 X157.426 Y136.462 E5.94495
G1 X157.875 Y136.108 E5.97347
G1 X158.402 Y135.883 E6.00206
G1 X158.974 Y135.801 E6.03089
G1 X159.547 Y135.869 E6.05968
G1 X160.079 Y136.082 E6.08827
G1 X160.538 Y136.426 E6.11688
G1 X160.892 Y136.875 E6.14541
G1 X161.117 Y137.402 E6.174
G1 X161.199 Y137.974 E6.20283
G1 X161.131 Y138.547 E6.23161
G1 X160.918 Y139.079 E6.2602
G1 X160.574 Y139.538 E6.28882
G1 X160.124 Y139.892 E6.31739
G1 X159.598 Y140.117 E6.34593
G1 X159.026 Y140.199 E6.37476
G1 X158.453 Y140.131 E6.40354
G1 X157.921 Y139.918 E6.43213
G1 X157.462 Y139.574 E6.46075
G1 X157.108 Y139.125 E6.48928
G1 X156.883 Y138.598 E6.51786
G1 X156.801 Y138.026 E6.54669
G0 X156.8 Y137.982
G0 X156.82 Y137.828
G0 X156.415 Y137.776
G0 X142.277 Y144.789
G0 X141.661 Y144.533
G0 X141 Y144.446
G0 X140.339 Y144.533
G0 X139.723 Y144.789
G0 X139.194 Y145.194
G0 X138.789 Y145.723
G0 X138.582 Y146.221
G0 X138.395 Y147.078
G0 X138.801 Y147.026
G1 X138.869 Y146.453 E6.57548
G1 X139.082 Y145.921 E6.60407
G1 X139.426 Y145.462 E6.63269
G1 X139.875 Y145.108 E6.66121
G1 X140.402 Y144.883 E6.6898
G1 X140.974 Y144.801 E6.71863
G1 X141.547 Y144.869 E6.74742
G1 X142.079 Y145.082 E6.77601
G1 X142.538 Y145.426 E6.80463
G1 X142.892 Y145.875 E6.83315
G1 X143.117 Y146.402 E6.86174
G1 X143.199 Y146.974 E6.89057
G1 X143.2 Y147.016 E6.89266
G1 X143.128 Y147.564 E6.92024
G1 X142.918 Y148.079 E6.94799
G1 X142.574 Y148.538 E6.9766
G1 X142.125 Y148.892 E7.00513
G1 X141.598 Y149.117 E7.03372
G1 X141.026 Y149.199 E7.06255
G1 X140.453 Y149.131 E7.09133
G1 X139.921 Y148.918 E7.11992
G1 X139.462 Y148.574 E7.14854
G1 X139.108 Y148.125 E7.17707
G1 X138.883 Y147.598 E7.20565
G1 X138.801 Y147.026 E7.23448
G0 X138.824 Y146.828
G0 X138.415 Y146.775
G0 X130.609 Y199.958
G0 X130.2 Y199.987
G1 X130.366 Y201.243 E7.29769
G1 X130.844 Y202.396 E7.35996
G1 X131.605 Y203.391 E7.42246
G1 X132.605 Y204.155 E7.48524
G1 X133.757 Y204.634 E7.54748
G1 X134.939 Y204.789 E7.60696
G1 X135.701 Y204.8 E7.64498
G1 X164.985 Y204.799 E9.10596
G1 X166.243 Y204.634 E9.16926
G1 X167.396 Y204.156 E9.23153
G1 X168.395 Y203.391 E9.29431
G1 X169.156 Y202.396 E9.35681
G1 X169.634 Y201.243 E9.41908
G1 X169.789 Y200.061 E9.47855
G1 X169.8 Y199.299 E9.51657
G1 X169.8 Y100.089 E14.46618
G1 X169.717 Y99.385 E14.50154
G1 X169.634 Y98.755 E14.53325
G1 X169.156 Y97.604 E14.59543
G1 X168.395 Y96.609 E14.65792
G1 X167.396 Y95.844 E14.7207
G1 X166.243 Y95.366 E14.78297
G1 X164.985 Y95.201 E14.84627
G1 X142.278 Y95.2 E15.97912
G1 X135.015 Y95.2 E16.34147
G1 X133.757 Y95.366 E16.40478
G1 X132.604 Y95.844 E16.46705
G1 X131.605 Y96.609 E16.52983
G1 X130.845 Y97.605 E16.59233
G1 X130.366 Y98.755 E16.65448
G1 X130.201 Y100.015 E16.71788
G1 X130.2 Y130.566 E18.24208
G1 X130.2 Y199.987 E21.7055
G0 X130.226 Y200.185
G0 X130.633 Y200.133
G0 X131.898 Y200.945
G0 X132.303 Y200.995
G1 X132.363 Y200.553 E21.72776
G1 X132.54 Y200.128 E21.75073
G1 X132.801 Y199.797 E21.77176
G1 X133.155 Y199.528 E21.79394
G1 X133.564 Y199.36 E21.816
G1 X134.005 Y199.303 E21.83818
G1 X134.447 Y199.363 E21.86044
G1 X134.872 Y199.54 E21.8834
G1 X135.203 Y199.801 E21.90443
G1 X135.472 Y200.155 E21.92662
G1 X135.64 Y200.564 E21.94868
G1 X135.696 Y200.952 E21.96823
G1 X135.637 Y201.447 E21.9931
G1 X135.46 Y201.872 E22.01607
G1 X135.199 Y202.203 E22.0371
G1 X134.845 Y202.472 E22.05928
G1 X134.436 Y202.641 E22.08136
G1 X133.995 Y202.697 E22.10354
G1 X133.553 Y202.637 E22.12579
G1 X133.128 Y202.46 E22.14876
G1 X132.797 Y202.199 E22.16979
G1 X132.528 Y201.845 E22.19198
G1 X132.36 Y201.436 E22.21403
G1 X132.303 Y200.995 E22.23622
G0 X132.329 Y200.797
G0 X131.922 Y200.747
G0 X132.219 Y199.977
G0 X132.533 Y199.565
G0 X132.952 Y199.237
G0 X133.444 Y199.025
G0 X163.898 Y200.945
G0 X164.303 Y200.995
G1 X164.363 Y200.553 E22.25847
G1 X164.54 Y200.128 E22.28144
G1 X164.801 Y199.797 E22.30247
G1 X165.155 Y199.528 E22.32465
G1 X165.564 Y199.36 E22.34671
G1 X166.005 Y199.303 E22.3689
G1 X166.447 Y199.363 E22.39115
G1 X166.825 Y199.514 E22.41146
G1 X167.203 Y199.801 E22.43514
G1 X167.472 Y200.155 E22.45732
G1 X167.641 Y200.564 E22.4794
G1 X167.697 Y201.005 E22.50157
G1 X167.637 Y201.447 E22.52383
G1 X167.46 Y201.872 E22.5468
G1 X167.199 Y202.203 E22.56783
G1 X166.826 Y202.486 E22.59119
G1 X166.418 Y202.648 E22.61309
G1 X165.995 Y202.697 E22.63433
G1 X165.553 Y202.637 E22.65659
G1 X165.128 Y202.46 E22.67955
G1 X164.797 Y202.199 E22.70058
G1 X164.528 Y201.845 E22.72277
G1 X164.36 Y201.436 E22.74483
G1 X164.303 Y200.995 E22.76701
G0 X164.329 Y200.797
G0 X163.922 Y200.747
G0 X163.954 Y99.494
G0 X164.36 Y99.436
G1 X164.303 Y98.995 E22.78919
G1 X164.363 Y98.553 E22.81145
G1 X164.54 Y98.128 E22.83442
G1 X164.801 Y97.797 E22.85545
G1 X165.155 Y97.528 E22.87763
G1 X165.564 Y97.359 E22.89971
G1 X166.005 Y97.303 E22.92189
G1 X166.447 Y97.363 E22.94414
G1 X166.872 Y97.54 E22.96711
G1 X167.19 Y97.786 E22.98717
G1 X167.472 Y98.155 E23.01034
G1 X167.64 Y98.564 E23.03239
G1 X167.697 Y99.005 E23.05458
G1 X167.637 Y99.447 E23.07683
G1 X167.46 Y99.872 E23.0998
G1 X167.199 Y100.203 E23.12083
G1 X166.826 Y100.486 E23.14419
G1 X166.418 Y100.648 E23.16609
G1 X165.995 Y100.697 E23.18734
G1 X165.553 Y100.637 E23.20959
G1 X165.128 Y100.46 E23.23256
G1 X164.797 Y100.199 E23.25359
G1 X164.528 Y99.845 E23.27577
G1 X164.36 Y99.436 E23.29783
G0 X164.335 Y99.238
G0 X163.982 Y99.577
;TYPE:WALL-INNER
G1 X163.906 Y98.947 E23.32949
G1 X163.991 Y98.405 E23.35686
G1 X164.222 Y97.886 E23.3852
G1 X164.554 Y97.482 E23.41129
G1 X164.997 Y97.16 E23.43861
G1 X165.507 Y96.963 E23.46589
G1 X166.053 Y96.906 E23.49328
G1 X166.595 Y96.991 E23.52065
G1 X167.115 Y97.222 E23.54904
G1 X167.479 Y97.51 E23.57219
G1 X167.822 Y97.956 E23.60026
G1 X168.029 Y98.461 E23.62749
G1 X168.098 Y98.997 E23.65445
G1 X168.009 Y99.595 E23.68462
G1 X167.778 Y100.114 E23.71296
G1 X167.446 Y100.517 E23.73901
G1 X166.979 Y100.856 E23.7678
G1 X166.47 Y101.044 E23.79487
G1 X165.947 Y101.094 E23.82108
G1 X165.405 Y101.009 E23.84845
G1 X164.935 Y100.811 E23.8739
G1 X164.532 Y100.501 E23.89926
G1 X164.194 Y100.069 E23.92663
G1 X163.982 Y99.577 E23.95336
G0 X163.967 Y99.573
G0 X136.962 Y109.462
G0 X136.89 Y110
G0 X136.9 Y110
G1 X136.946 Y109.769 E23.96511
G1 X137.065 Y109.586 E23.976
G1 X137.293 Y109.436 E23.98961
G1 X137.5 Y109.4 E24.00009
G1 X162.551 Y109.401 E25.24989
G1 X162.783 Y109.47 E25.26197
G1 X163.002 Y109.669 E25.27673
G1 X163.089 Y109.881 E25.28817
G1 X163.1 Y110 E25.29413
G1 X163.1 Y124 E25.99259
G1 X163.046 Y124.251 E26.0054
G1 X162.908 Y124.441 E26.01712
G1 X162.657 Y124.58 E26.03143
G1 X161.919 Y124.6 E26.06826
G1 X137.459 Y124.599 E27.28858
G1 X137.176 Y124.506 E27.30344
G1 X137.016 Y124.356 E27.31438
G1 X136.908 Y124.104 E27.32806
G1 X136.9 Y124 E27.33326
G1 X136.9 Y110 E28.03172
G0 X136.89 Y110
G0 X132.025 Y99.556
G0 X131.908 Y99.105
G1 X131.952 Y98.556 E28.0592
G1 X132.142 Y98.027 E28.08725
G1 X132.447 Y97.59 E28.11383
G1 X132.864 Y97.239 E28.14103
G1 X133.355 Y97.006 E28.16814
G1 X133.895 Y96.907 E28.19553
G1 X134.444 Y96.952 E28.22301
G1 X134.973 Y97.142 E28.25105
G1 X135.409 Y97.447 E28.2776
G1 X135.761 Y97.864 E28.30482
G1 X135.994 Y98.355 E28.33194
G1 X136.092 Y98.895 E28.35932
G1 X136.047 Y99.444 E28.3868
G1 X135.871 Y99.94 E28.41306
G1 X135.553 Y100.409 E28.44133
G1 X135.136 Y100.761 E28.46855
G1 X134.645 Y100.994 E28.49567
G1 X134.105 Y101.092 E28.52305
G1 X133.556 Y101.047 E28.55053
G1 X133.027 Y100.858 E28.57856
G1 X132.591 Y100.553 E28.6051
G1 X132.239 Y100.136 E28.63233
G1 X132.006 Y99.645 E28.65944
G1 X131.908 Y99.105 E28.68682
G0 X131.898 Y99.106
G0 X138.464 Y137.4
G0 X138.473 Y137.401
G1 X138.712 Y136.768 E28.72058
G1 X139.109 Y136.218 E28.75442
G1 X139.631 Y135.791 E28.78807
G1 X140.249 Y135.513 E28.82187
G1 X140.922 Y135.404 E28.85589
G1 X141.599 Y135.472 E28.88983
G1 X142.232 Y135.712 E28.92361
G1 X142.782 Y136.109 E28.95745
G1 X143.209 Y136.631 E28.9911
G1 X143.487 Y137.249 E29.0249
G1 X143.596 Y137.922 E29.05892
G1 X143.528 Y138.599 E29.09286
G1 X143.288 Y139.232 E29.12664
G1 X142.891 Y139.782 E29.16048
G1 X142.369 Y140.209 E29.19412
G1 X141.751 Y140.487 E29.22793
G1 X141.078 Y140.596 E29.26195
G1 X140.401 Y140.528 E29.29589
G1 X139.768 Y140.288 E29.32967
G1 X139.218 Y139.891 E29.36351
G1 X138.791 Y139.369 E29.39715
G1 X138.513 Y138.751 E29.43096
G1 X138.405 Y138.078 E29.46497
G1 X138.473 Y137.401 E29.49891
G0 X138.464 Y137.4
G0 X138.789 Y136.723
G0 X139.194 Y136.194
G0 X139.723 Y135.789
G0 X140.339 Y135.533
G0 X141 Y135.446
G0 X141.594 Y135.524
G0 X147.395 Y138.078
G0 X147.404 Y138.078
G1 X147.472 Y137.401 E29.53286
G1 X147.712 Y136.768 E29.56663
G1 X148.109 Y136.218 E29.60047
G1 X148.631 Y135.791 E29.63412
G1 X149.249 Y135.513 E29.66793
G1 X149.922 Y135.404 E29.70194
G1 X150.599 Y135.472 E29.73589
G1 X151.232 Y135.712 E29.76966
G1 X151.782 Y136.109 E29.8035
G1 X152.209 Y136.631 E29.83715
G1 X152.487 Y137.249 E29.87095
G1 X152.596 Y137.922 E29.90497
G1 X152.528 Y138.599 E29.93891
G1 X152.288 Y139.232 E29.97269
G1 X151.891 Y139.782 E30.00653
G1 X151.369 Y140.209 E30.04018
G1 X150.751 Y140.487 E30.07398
G1 X150.078 Y140.595 E30.10799
G1 X149.401 Y140.527 E30.14193
G1 X148.768 Y140.288 E30.17569
G1 X148.218 Y139.891 E30.20953
G1 X147.791 Y139.369 E30.24318
G1 X147.513 Y138.751 E30.27699
G1 X147.404 Y138.078 E30.311
G0 X147.395 Y138.078
G0 X147.533 Y138.661
G0 X147.789 Y139.277
G0 X148.194 Y139.806
G0 X148.723 Y140.211
G0 X149.339 Y140.467
G0 X150 Y140.554
G0 X150.534 Y140.484
G0 X156.395 Y138.078
G0 X156.404 Y138.078
G1 X156.402 Y137.947 E30.31754
G1 X156.472 Y137.401 E30.345
G1 X156.712 Y136.768 E30.37877
G1 X157.109 Y136.218 E30.41261
G1 X157.631 Y135.791 E30.44626
G1 X158.249 Y135.513 E30.48007
G1 X158.922 Y135.404 E30.51408
G1 X159.599 Y135.472 E30.54803
G1 X160.232 Y135.712 E30.5818
G1 X160.782 Y136.109 E30.61564
G1 X161.209 Y136.631 E30.64929
G1 X161.487 Y137.249 E30.6831
G1 X161.595 Y137.922 E30.7171
G1 X161.527 Y138.599 E30.75105
G1 X161.288 Y139.232 E30.78481
G1 X160.891 Y139.782 E30.81865
G1 X160.368 Y140.209 E30.85233
G1 X159.751 Y140.487 E30.88609
G1 X159.078 Y140.595 E30.9201
G1 X158.401 Y140.527 E30.95404
G1 X157.768 Y140.288 E30.9878
G1 X157.218 Y139.891 E31.02164
G1 X156.791 Y139.369 E31.05529
G1 X156.513 Y138.751 E31.0891
G1 X156.404 Y138.078 E31.12311
G0 X156.395 Y138.078
G0 X141 Y144.446
G0 X140.339 Y144.533
G0 X139.723 Y144.789
G0 X139.194 Y145.194
G0 X138.789 Y145.723
G0 X138.582 Y146.221
G0 X138.395 Y147.078
G0 X138.405 Y147.078
G1 X138.473 Y146.401 E31.15706
G1 X138.712 Y145.768 E31.19081
G1 X139.109 Y145.218 E31.22465
G1 X139.631 Y144.791 E31.2583
G1 X140.249 Y144.513 E31.29211
G1 X140.922 Y144.404 E31.32612
G1 X141.599 Y144.472 E31.36007
G1 X142.232 Y144.712 E31.39384
G1 X142.782 Y145.109 E31.42768
G1 X143.209 Y145.631 E31.46133
G1 X143.487 Y146.249 E31.49514
G1 X143.596 Y146.922 E31.52915
G1 X143.599 Y147.047 E31.53539
G1 X143.524 Y147.625 E31.56447
G1 X143.288 Y148.232 E31.59696
G1 X142.891 Y148.782 E31.6308
G1 X142.369 Y149.209 E31.66444
G1 X141.751 Y149.487 E31.69825
G1 X141.078 Y149.595 E31.73226
G1 X140.401 Y149.527 E31.7662
G1 X139.768 Y149.288 E31.79996
G1 X139.218 Y148.891 E31.8338
G1 X138.791 Y148.369 E31.86745
G1 X138.513 Y147.751 E31.90126
G1 X138.405 Y147.078 E31.93526
G0 X138.395 Y147.078
G0 X130.611 Y199.961
G0 X130.6 Y199.961
G1 X130.756 Y201.139 E31.99454
G1 X131.193 Y202.195 E32.05156
G1 X131.891 Y203.106 E32.10882
G1 X132.36 Y203.465 E32.13829
G1 X132.807 Y203.805 E32.1663
G1 X133.861 Y204.244 E32.22327
G1 X135.041 Y204.4 E32.28265
G1 X164.959 Y204.399 E33.77527
G1 X166.138 Y204.244 E33.83459
G1 X167.194 Y203.806 E33.89163
G1 X168.109 Y203.106 E33.9491
G1 X168.806 Y202.194 E34.00637
G1 X169.244 Y201.138 E34.06341
G1 X169.371 Y200.164 E34.11241
G1 X169.4 Y199.299 E34.15559
G1 X169.4 Y100.089 E39.1052
G1 X169.32 Y99.437 E39.13797
G1 X169.255 Y98.936 E39.16317
