;FLAVOR:Marlin
;TIME:713
;Filament used: 1.20464m
;Layer height: 0.2
;MINX:142.2
;MINY:144.534
;MINZ:0.3
;MAXX:157.801
;MAXY:166.109
;MAXZ:16.1
;Generated with Cura_SteamEngine 5.0.0
M140 S60
M105
M190 S60
M104 S220
M105
M109 S220
M82 ;absolute extrusion mode
START
G1 F200 E15 ;extrude 15 mm of feed stock
G1 F200 E13.5 ;make retraction
G92 E0 ;zero the extruded length again
G92 E0
G92 E0
G1 F1500 E-4
;LAYER_COUNT:80
;LAYER:0
M107
;MESH:sens_v3.stl
G0 F4800 X142.678 Y149.913 Z0.3
;TYPE:WALL-OUTER
G1 F1500 E0
G1 F4800 X142.679 Y166.109 E0.80802
G1 X157.323 Y166.109 E1.53861
G1 X157.322 Y149.342 E2.37512
G1 X157.279 Y148.986 E2.39301
G1 X157.125 Y148.347 E2.42581
G1 X156.772 Y147.704 E2.4624
G1 X156.432 Y147.311 E2.48833
G1 X155.754 Y146.677 E2.53464
G1 X154.544 Y145.955 E2.60493
G1 X153.166 Y145.442 E2.67829
G1 X150.73 Y145.03 E2.80155
G1 X149.658 Y145.013 E2.85504
G1 X146.933 Y145.414 E2.99246
G1 X146.338 Y145.596 E3.0235
G1 X144.554 Y146.46 E3.12239
G1 X144.141 Y146.782 E3.14852
G1 X143.37 Y147.514 E3.20156
G1 X143.035 Y148.064 E3.23369
G1 X142.802 Y148.558 E3.26094
G1 X142.703 Y149.132 E3.29
G1 X142.678 Y149.913 E3.32898
G0 X142.678 Y150.113
G0 X143.078 Y149.348
;TYPE:WALL-INNER
G1 X143.079 Y165.709 E4.14523
G1 X156.923 Y165.709 E4.83591
G1 X156.922 Y149.342 E5.65247
G1 X156.834 Y148.845 E5.67765
G1 X156.749 Y148.493 E5.69571
G1 X156.436 Y147.924 E5.72811
G1 X156.053 Y147.504 E5.75647
G1 X155.512 Y146.999 E5.79339
G1 X154.37 Y146.317 E5.85975
G1 X153.062 Y145.83 E5.92939
G1 X150.693 Y145.43 E6.04925
G1 X149.684 Y145.413 E6.0996
G1 X147.021 Y145.806 E6.23389
G1 X146.484 Y145.97 E6.26191
G1 X144.758 Y146.806 E6.35759
G1 X144.416 Y147.072 E6.3792
G1 X143.671 Y147.78 E6.43048
G1 X143.389 Y148.249 E6.45778
G1 X143.148 Y148.787 E6.48719
G1 X143.078 Y149.348 E6.5154
G0 X143.458 Y149.513
;TYPE:SKIN
G1 X143.459 Y165.329 E7.30446
G1 X156.544 Y165.329 E7.95727
G1 X156.538 Y149.859 E8.72907
G1 X156.537 Y149.238 E8.76006
G1 X156.39 Y148.63 E8.79126
G1 X156.135 Y148.198 E8.81629
G1 X155.972 Y147.95 E8.8311
G1 X155.279 Y147.302 E8.87843
G1 X154.207 Y146.662 E8.94072
G1 X152.965 Y146.201 E9.00681
G1 X150.656 Y145.81 E9.12365
G1 X149.712 Y145.795 E9.17075
G1 X147.356 Y146.14 E9.28955
G1 X146.867 Y146.25 E9.31455
G1 X146.394 Y146.436 E9.33991
G1 X145.073 Y147.076 E9.41314
G1 X144.757 Y147.274 E9.43175
G1 X143.963 Y148.027 E9.48634
G1 X143.676 Y148.538 E9.51558
G1 X143.519 Y148.879 E9.53431
G1 X143.458 Y149.513 E9.56608
G0 X156.247 Y148.893
G1 X154.311 Y146.958 E9.70264
G1 X154.241 Y146.888
G0 X153.343 Y146.555
G1 X156.337 Y149.548 E9.91385
G0 X156.337 Y150.114
G1 X152.558 Y146.335 E10.18048
G0 X151.876 Y146.219
G1 X156.337 Y150.68 E10.49523
G0 X156.337 Y151.246
G1 X151.195 Y146.104 E10.85802
G0 X150.533 Y146.008
G1 X156.337 Y151.812 E11.26753
G0 X156.338 Y152.378
G1 X149.958 Y145.999 E11.71764
G0 X149.432 Y146.038
G1 X156.338 Y152.944 E12.20489
G0 X156.338 Y153.51
G1 X148.938 Y146.11 E12.727
G0 X148.445 Y146.183
G1 X156.339 Y154.076 E13.28393
G0 X156.339 Y154.642
G1 X147.952 Y146.255 E13.87568
G0 X147.458 Y146.327
G1 X156.339 Y155.208 E14.50228
G0 X156.339 Y155.774
G1 X147.001 Y146.435 E15.16116
G0 X146.571 Y146.571
G1 X156.339 Y156.339 E15.85035
G0 X156.34 Y156.906
G1 X146.19 Y146.756 E16.56649
G0 X145.809 Y146.941
G1 X156.34 Y157.471 E17.30947
G0 X156.341 Y158.038
G1 X145.428 Y147.125 E18.07944
G0 X145.062 Y147.324
G1 X156.341 Y158.604 E18.87527
G0 X156.341 Y159.169
G1 X144.738 Y147.566 E19.69392
G0 X144.448 Y147.842
G1 X156.342 Y159.736 E20.53311
G0 X156.342 Y160.301
G1 X144.157 Y148.117 E21.39279
G0 X143.94 Y148.465
G1 X156.342 Y160.868 E22.26786
G0 X156.342 Y161.433
G1 X143.755 Y148.846 E23.15594
G0 X143.665 Y149.321
G1 X156.342 Y161.999 E24.0504
G0 X156.343 Y162.565
G1 X143.657 Y149.88 E24.94543
G0 X143.657 Y150.446
G1 X156.343 Y163.131 E25.84046
G0 X156.344 Y163.698
G1 X143.657 Y151.011 E26.7356
G0 X143.657 Y151.577
G1 X156.344 Y164.263 E27.6307
G0 X156.344 Y164.829
G1 X143.657 Y152.143 E28.5258
G0 X143.657 Y152.708
G1 X156.076 Y165.127 E29.40203
G0 X155.511 Y165.127
G1 X143.657 Y153.274 E30.23836
G0 X143.657 Y153.84
G1 X154.945 Y165.127 E31.03475
G0 X154.379 Y165.127
G1 X143.657 Y154.405 E31.79125
G0 X143.657 Y154.971
G1 X153.814 Y165.127 E32.50784
G0 X153.248 Y165.127
G1 X143.657 Y155.537 E33.18451
G0 X143.657 Y156.103
G1 X152.682 Y165.127 E33.82123
G0 X152.117 Y165.127
G1 X143.657 Y156.668 E34.4181
G0 X143.657 Y157.234
G1 X151.551 Y165.127 E34.97503
G0 X150.985 Y165.127
G1 X143.658 Y157.8 E35.49198
G0 X143.658 Y158.366
G1 X150.419 Y165.127 E35.96901
G0 X149.854 Y165.127
G1 X143.658 Y158.932 E36.40614
G0 X143.658 Y159.497
G1 X149.288 Y165.127 E36.80336
G0 X148.722 Y165.127
G1 X143.658 Y160.063 E37.16065
G0 X143.658 Y160.629
G1 X148.157 Y165.127 E37.47805
G0 X147.591 Y165.127
G1 X143.658 Y161.194 E37.75554
G0 X143.658 Y161.76
G1 X147.025 Y165.127 E37.9931
G0 X146.46 Y165.127
G1 X143.658 Y162.326 E38.19076
G0 X143.658 Y162.891
G1 X145.894 Y165.127 E38.34853
G0 X145.328 Y165.127
G1 X143.658 Y163.457 E38.46635
G0 X143.658 Y164.023
G1 X144.763 Y165.127 E38.54428
G0 X144.197 Y165.127
G1 X143.658 Y164.589 E38.58228
;MESH:NONMESH
G0 F600 X143.658 Y164.589 Z0.5
G0 F4800 X143.087 Y149.346
G0 X142.41 Y149.323
;TIME_ELAPSED:16.320094
;LAYER:1
M106 S255
;TYPE:WALL-OUTER
;MESH:sens_v3.stl
G1 X142.411 Y166.109 E39.14058
G1 X157.591 Y166.109 E39.64547
G1 X157.59 Y149.354 E40.20274
G1 X157.526 Y148.836 E40.2201
G1 X157.38 Y148.257 E40.23996
G1 X156.991 Y147.549 E40.26683
G1 X156.625 Y147.126 E40.28544
G1 X155.915 Y146.462 E40.31777
G1 X154.659 Y145.713 E40.36641
G1 X153.24 Y145.184 E40.41678
G1 X150.746 Y144.762 E40.50091
G1 X149.65 Y144.745 E40.53736
G1 X146.849 Y145.158 E40.63153
G1 X146.254 Y145.343 E40.65226
G1 X144.406 Y146.237 E40.72054
G1 X143.971 Y146.573 E40.73882
G1 X143.161 Y147.346 E40.77606
G1 X142.926 Y147.7 E40.79019
G1 X142.586 Y148.349 E40.81456
G1 X142.478 Y148.786 E40.82953
G1 X142.41 Y149.323 E40.84753
G0 X142.41 Y149.523
G0 X142.811 Y149.913
;TYPE:WALL-INNER
G1 X142.81 Y158.519 E41.13377
G1 X142.811 Y165.709 E41.37291
G1 X157.191 Y165.709 E41.85119
G1 X157.19 Y149.354 E42.39516
G1 X157.077 Y148.627 E42.41963
G1 X156.979 Y148.358 E42.42915
G1 X156.655 Y147.769 E42.45151
G1 X156.352 Y147.418 E42.46693
G1 X155.673 Y146.784 E42.49783
G1 X154.485 Y146.075 E42.54385
G1 X153.136 Y145.572 E42.59173
G1 X150.709 Y145.162 E42.6736
G1 X149.676 Y145.145 E42.70796
G1 X146.938 Y145.549 E42.80001
G1 X146.401 Y145.716 E42.81872
G1 X144.609 Y146.583 E42.88493
G1 X144.247 Y146.863 E42.90015
G1 X143.462 Y147.612 E42.93624
G1 X143.154 Y148.126 E42.95617
G1 X142.924 Y148.611 E42.97402
G1 X142.836 Y149.146 E42.99205
G1 X142.811 Y149.913 E43.01758
G0 X143.191 Y149.373
;TYPE:SKIN
G1 X143.19 Y158.518 E43.32174
G1 X143.191 Y165.329 E43.54828
G1 X156.812 Y165.329 E44.00131
G1 X156.811 Y149.387 E44.53155
G1 X156.697 Y148.671 E44.55566
G1 X156.404 Y148.124 E44.5763
G1 X156.181 Y147.782 E44.58988
G1 X155.443 Y147.089 E44.62355
G1 X154.322 Y146.42 E44.66697
G1 X153.038 Y145.942 E44.71254
G1 X151.138 Y145.621 E44.77663
G1 X150.672 Y145.541 E44.79236
G1 X149.705 Y145.527 E44.82452
G1 X147.284 Y145.882 E44.90591
G1 X146.778 Y145.997 E44.92316
G1 X146.073 Y146.298 E44.94866
G1 X144.929 Y146.851 E44.99092
G1 X144.595 Y147.059 E45.00401
G1 X143.755 Y147.859 E45.04259
G1 X143.493 Y148.303 E45.05974
G1 X143.26 Y148.813 E45.07839
G1 X143.191 Y149.373 E45.09715
G0 X143.435 Y149.023
G1 X145.814 Y146.644 E45.20905
G1 X145.884 Y146.574
G0 X146.835 Y146.189
G1 X143.39 Y149.634 E45.3711
G0 X143.39 Y150.2
G1 X147.543 Y146.047 E45.56644
G0 X148.207 Y145.948
G1 X143.39 Y150.765 E45.79302
G0 X143.39 Y151.331
G1 X148.87 Y145.851 E46.05078
G0 X149.533 Y145.753
G1 X143.39 Y151.897 E46.33975
G0 X143.39 Y152.462
G1 X150.12 Y145.732 E46.65631
G0 X150.675 Y145.743
G1 X143.39 Y153.028 E46.99897
G0 X143.39 Y153.594
G1 X151.158 Y145.825 E47.36438
G0 X151.642 Y145.907
G1 X143.39 Y154.159 E47.75253
G0 X143.39 Y154.725
G1 X152.126 Y145.989 E48.16344
G0 X152.609 Y146.071
G1 X143.39 Y155.291 E48.5971
G0 X143.39 Y155.856
G1 X153.077 Y146.17 E49.05272
G0 X153.489 Y146.323
G1 X143.39 Y156.422 E49.52775
G0 X143.39 Y156.988
G1 X153.902 Y146.476 E50.0222
G0 X154.303 Y146.641
G1 X143.39 Y157.553 E50.53549
G0 X143.39 Y158.119
G1 X154.657 Y146.852 E51.06546
G0 X155.011 Y147.064
G1 X143.39 Y158.685 E51.61207
G0 X143.39 Y159.251
G1 X155.357 Y147.283 E52.17499
G0 X155.649 Y147.557
G1 X143.39 Y159.816 E52.75161
G0 X143.39 Y160.382
G1 X155.941 Y147.831 E53.34198
G0 X156.184 Y148.154
G1 X143.39 Y160.948 E53.94377
G0 X143.39 Y161.513
G1 X156.391 Y148.512 E54.55529
G0 X156.538 Y148.931
G1 X143.39 Y162.079 E55.17373
G0 X143.39 Y162.645
G1 X156.607 Y149.427 E55.79545
G0 X156.607 Y149.993
G1 X143.39 Y163.21 E56.41713
G0 X143.39 Y163.776
G1 X156.607 Y150.559 E57.03882
G0 X156.607 Y151.124
G1 X143.39 Y164.342 E57.66053
G0 X143.39 Y164.907
G1 X156.607 Y151.69 E58.28222
G0 X156.608 Y152.255
G1 X143.735 Y165.128 E58.88772
G0 X144.301 Y165.128
G1 X156.608 Y152.821 E59.46661
G0 X156.608 Y153.387
G1 X144.867 Y165.128 E60.01887
G0 X145.432 Y165.128
G1 X156.608 Y153.952 E60.54455
G0 X156.608 Y154.518
G1 X145.998 Y165.128 E61.04361
G0 X146.564 Y165.128
G1 X156.609 Y155.083 E61.5161
G0 X156.609 Y155.649
G1 X147.129 Y165.128 E61.96199
G0 X147.695 Y165.128
G1 X156.609 Y156.214 E62.38127
G0 X156.609 Y156.78
G1 X148.261 Y165.128 E62.77394
G0 X148.826 Y165.128
G1 X156.61 Y157.345 E63.14005
G0 X156.61 Y157.911
G1 X149.392 Y165.128 E63.47954
G0 X149.958 Y165.128
G1 X156.61 Y158.476 E63.79243
G0 X156.61 Y159.042
G1 X150.523 Y165.128 E64.07872
G0 X151.089 Y165.128
G1 X156.61 Y159.608 E64.33839
G0 X156.61 Y160.173
G1 X151.655 Y165.128 E64.57146
G0 X152.22 Y165.128
G1 X156.61 Y160.738 E64.77795
G0 X156.61 Y161.304
G1 X152.786 Y165.128 E64.95782
G0 X153.352 Y165.128
G1 X156.61 Y161.87 E65.11106
G0 X156.61 Y162.435
G1 X153.918 Y165.128 E65.23771
G0 X154.483 Y165.128
G1 X156.611 Y163 E65.3378
G0 X156.611 Y163.566
G1 X155.049 Y165.128 E65.41128
G0 X155.615 Y165.128
G1 X156.611 Y164.132 E65.45813
G0 X156.611 Y164.697
G1 X156.18 Y165.128 E65.4784
;MESH:NONMESH
G0 F600 X156.18 Y165.128 Z0.7
G0 F4800 X142.819 Y149.346
G0 X142.292 Y149.323
;TIME_ELAPSED:28.422266
;LAYER:2
;TYPE:WALL-OUTER
;MESH:sens_v3.stl
G1 X142.293 Y166.109 E66.0367
G1 X157.709 Y166.109 E66.54944
G1 X157.708 Y149.354 E67.10671
G1 X157.642 Y148.816 E67.12474
G1 X157.526 Y148.314 E67.14188
G1 X157.292 Y147.854 E67.15904
G1 X156.972 Y147.333 E67.17938
G1 X156.578 Y146.921 E67.19834
G1 X155.987 Y146.367 E67.22528
G1 X154.709 Y145.606 E67.27476
G1 X153.273 Y145.069 E67.32575
G1 X151.282 Y144.734 E67.3929
G1 X150.753 Y144.644 E67.41075
G1 X149.646 Y144.627 E67.44757
G1 X146.829 Y145.041 E67.54227
G1 X146.212 Y145.23 E67.56373
G1 X144.341 Y146.137 E67.63289
G1 X143.896 Y146.482 E67.65162
G1 X143.069 Y147.271 E67.68963
G1 X142.825 Y147.638 E67.70429
G1 X142.479 Y148.301 E67.72917
G1 X142.361 Y148.772 E67.74531
G1 X142.292 Y149.323 E67.76378
G0 X142.292 Y149.523
G0 X142.692 Y149.915
;TYPE:WALL-INNER
G1 X142.693 Y165.709 E68.28909
G1 X157.309 Y165.709 E68.77523
G1 X157.308 Y149.354 E69.31919
G1 X157.191 Y148.597 E69.34467
G1 X157.087 Y148.311 E69.35479
G1 X156.752 Y147.702 E69.37791
G1 X156.436 Y147.336 E69.39399
G1 X155.745 Y146.689 E69.42548
G1 X154.535 Y145.968 E69.47233
G1 X153.169 Y145.457 E69.52083
G1 X150.716 Y145.044 E69.60357
G1 X149.672 Y145.027 E69.6383
G1 X146.917 Y145.432 E69.73091
G1 X146.359 Y145.604 E69.75034
G1 X144.544 Y146.483 E69.81741
G1 X144.172 Y146.772 E69.83308
G1 X143.37 Y147.537 E69.86994
G1 X143.049 Y148.073 E69.89072
G1 X142.814 Y148.568 E69.90895
G1 X142.719 Y149.134 E69.92803
G1 X142.692 Y149.915 E69.95403
G0 X143.073 Y149.372
;TYPE:SKIN
G1 X143.073 Y165.329 E70.48476
G1 X156.93 Y165.329 E70.94564
G1 X156.928 Y149.356 E71.47691
G1 X156.81 Y148.636 E71.50117
G1 X156.583 Y148.184 E71.518
G1 X156.265 Y147.698 E71.53731
G1 X155.512 Y146.992 E71.57165
G1 X155.18 Y146.794 E71.5845
G1 X154.372 Y146.313 E71.61578
G1 X153.071 Y145.828 E71.66196
G1 X150.679 Y145.424 E71.74264
G1 X149.7 Y145.408 E71.77521
G1 X147.003 Y145.804 E71.86587
G1 X146.497 Y145.959 E71.88348
G1 X144.867 Y146.749 E71.94372
G1 X144.524 Y146.963 E71.95717
G1 X143.663 Y147.784 E71.99674
G1 X143.388 Y148.25 E72.01473
G1 X143.145 Y148.784 E72.03425
G1 X143.073 Y149.372 E72.05395
G0 X156.615 Y148.696
G1 X154.603 Y146.683 E72.14861
G1 X154.533 Y146.613
G0 X153.588 Y146.234
G1 X156.728 Y149.374 E72.29631
G0 X156.728 Y149.94
G1 X152.768 Y145.98 E72.48257
G0 X152.088 Y145.865
G1 X156.728 Y150.506 E72.70085
G0 X156.728 Y151.071
G1 X151.407 Y145.75 E72.95113
G0 X150.726 Y145.635
G1 X156.728 Y151.637 E73.23345
G0 X156.728 Y152.203
G1 X150.141 Y145.615 E73.5433
G0 X149.587 Y145.627
G1 X156.728 Y152.769 E73.87922
G0 X156.728 Y153.334
G1 X149.093 Y145.699 E74.23835
G0 X148.599 Y145.771
G1 X156.728 Y153.9 E74.62071
G0 X156.728 Y154.466
G1 X148.107 Y145.844 E75.02624
G0 X147.613 Y145.916
G1 X156.729 Y155.032 E75.45503
G0 X156.729 Y155.598
G1 X147.134 Y146.003 E75.90635
G0 X146.683 Y146.117
G1 X156.729 Y156.163 E76.37888
G0 X156.729 Y156.729
G1 X146.284 Y146.284 E76.87018
G0 X145.903 Y146.469
G1 X156.729 Y157.295 E77.3794
G0 X156.729 Y157.86
G1 X145.522 Y146.653 E77.90654
G0 X145.141 Y146.838
G1 X156.729 Y158.426 E78.45161
G0 X156.729 Y158.992
G1 X144.78 Y147.043 E79.01365
G0 X144.466 Y147.294
G1 X156.729 Y159.557 E79.59047
G0 X156.73 Y160.124
G1 X144.176 Y147.57 E80.18097
G0 X143.887 Y147.846
G1 X156.73 Y160.69 E80.78509
G0 X156.73 Y161.255
G1 X143.658 Y148.184 E81.39993
G0 X143.467 Y148.558
G1 X156.73 Y161.821 E82.02378
G0 X156.73 Y162.387
G1 X143.322 Y148.978 E82.65448
G0 X143.272 Y149.495
G1 X156.73 Y162.952 E83.28748
G0 X156.73 Y163.518
G1 X143.272 Y150.06 E83.9205
G0 X143.272 Y150.626
G1 X156.73 Y164.084 E84.55352
G0 X156.73 Y164.649
G1 X143.272 Y151.192 E85.18652
G0 X143.272 Y151.757
G1 X156.642 Y165.127 E85.81541
G0 X156.076 Y165.127
G1 X143.272 Y152.323 E86.41767
G0 X143.272 Y152.889
G1 X155.511 Y165.127 E86.99333
G0 X154.945 Y165.127
G1 X143.272 Y153.454 E87.54239
G0 X143.272 Y154.02
G1 X154.379 Y165.127 E88.06483
G0 X153.814 Y165.127
G1 X143.272 Y154.586 E88.56067
G0 X143.272 Y155.151
G1 X153.248 Y165.127 E89.02991
G0 X152.682 Y165.127
G1 X143.272 Y155.717 E89.47253
G0 X143.272 Y156.283
G1 X152.117 Y165.127 E89.88854
G0 X151.551 Y165.127
G1 X143.272 Y156.849 E90.27794
G0 X143.272 Y157.414
G1 X150.985 Y165.127 E90.64074
G0 X150.419 Y165.127
G1 X143.272 Y157.98 E90.97691
G0 X143.272 Y158.546
G1 X149.854 Y165.127 E91.28648
G0 X149.288 Y165.127
G1 X143.272 Y159.111 E91.56946
G0 X143.272 Y159.677
G1 X148.722 Y165.127 E91.82581
G0 X148.157 Y165.127
G1 X143.272 Y160.243 E92.05556
G0 X143.272 Y160.808
G1 X147.591 Y165.127 E92.25871
G0 X147.025 Y165.127
G1 X143.272 Y161.374 E92.43524
G0 X143.272 Y161.94
G1 X146.46 Y165.127 E92.58517
G0 X145.894 Y165.127
G1 X143.272 Y162.505 E92.7085
G0 X143.272 Y163.071
G1 X145.328 Y165.127 E92.80521
G0 X144.763 Y165.127
G1 X143.272 Y163.637 E92.87532
G0 X143.272 Y164.202
G1 X144.197 Y165.127 E92.91883
G0 X143.631 Y165.127
G1 X143.272 Y164.768 E92.93572
;MESH:NONMESH
G0 F600 X143.272 Y164.768 Z0.9
G0 F4800 X142.701 Y149.346
G0 X142.226 Y149.323
;TIME_ELAPSED:40.877088
;LAYER:3
;TYPE:WALL-OUTER
;MESH:sens_v3.stl
G1 X142.227 Y166.109 E93.49402
G1 X157.775 Y166.109 E94.01115
G1 X157.774 Y149.354 E94.56842
G1 X157.707 Y148.804 E94.58685
G1 X157.55 Y148.187 E94.60803
G1 X157.142 Y147.445 E94.63619
G1 X156.757 Y147 E94.65576
G1 X156.026 Y146.315 E94.68908
