;FLAVOR:Marlin
;TIME:2145
;Filament used: 4.96543m
;Layer height: 0.2
;MINX:92.7
;MINY:126.2
;MINZ:0.3
;MAXX:207.3
;MAXY:173.8
;MAXZ:3.1
;Generated with Cura_SteamEngine 5.0.0
M140 S60
M105
M190 S60
M104 S220
M105
M109 S220
M82 ;absolute extrusion mode
START
G1 F200 E15 ;extrude 15 mm of feed stock
G1 F200 E13.5 ;make retraction
G92 E0 ;zero the extruded length again
G92 E0
G92 E0
G1 F1500 E-4
;LAYER_COUNT:15
;LAYER:0
M107
;MESH:????????????.stl
G0 F4800 X93.801 Y132.974 Z0.3
;TYPE:WALL-OUTER
G1 F1500 E0
G1 F4800 X93.852 Y132.584 E0.01962
G1 F3902.4 X93.781 Y132.497 E0.02651
G1 F3386.2 X94.039 Y132.005 E0.0658
G1 F3555.6 X94.276 Y131.727 E0.09041
G1 X94.642 Y131.445 E0.12152
G1 F3380.3 X94.997 Y131.28 E0.14926
G1 F3902.4 X95.092 Y131.351 E0.15654
G1 F4800 X95.526 Y131.301 E0.17833
G1 X95.968 Y131.366 E0.20062
G1 X96.374 Y131.541 E0.22268
G1 X96.721 Y131.816 E0.24477
G1 X96.985 Y132.171 E0.26684
G1 X97.148 Y132.583 E0.28894
G1 X97.199 Y133.026 E0.31119
G1 X97.134 Y133.468 E0.33348
G1 X96.959 Y133.874 E0.35554
G1 X96.684 Y134.221 E0.37763
G1 X96.329 Y134.485 E0.3997
G1 X95.917 Y134.648 E0.4218
G1 X95.474 Y134.699 E0.44405
G1 X95.032 Y134.634 E0.46634
G1 X94.626 Y134.459 E0.48839
G1 X94.279 Y134.184 E0.51048
G1 X94 Y133.794 E0.53441
G1 X93.852 Y133.417 E0.55461
G1 X93.801 Y132.974 E0.57686
G0 X93.826 Y132.776
G0 X93.422 Y132.724
G0 X93.406 Y166.848
G0 X93.81 Y166.9
G1 X93.866 Y166.532 E0.59543
G1 X94.041 Y166.126 E0.61749
G1 X94.316 Y165.779 E0.63958
G1 X94.671 Y165.515 E0.66165
G1 X95.083 Y165.352 E0.68375
G1 X95.526 Y165.301 E0.706
G1 X95.968 Y165.366 E0.72829
G1 X96.374 Y165.541 E0.75035
G1 X96.721 Y165.816 E0.77244
G1 X96.985 Y166.171 E0.79451
G1 X97.148 Y166.583 E0.81661
G1 X97.199 Y167.026 E0.83886
G1 X97.134 Y167.468 E0.86115
G1 X96.959 Y167.874 E0.88321
G1 X96.684 Y168.221 E0.9053
G1 X96.302 Y168.497 E0.92881
G1 X95.917 Y168.648 E0.94944
G1 X95.474 Y168.699 E0.97169
G1 X94.945 Y168.599 E0.99855
G1 X94.626 Y168.459 E1.01593
G1 X94.279 Y168.184 E1.03802
G1 X94.015 Y167.829 E1.06009
G1 X93.852 Y167.417 E1.08219
G1 X93.81 Y166.9 E1.10807
G0 X93.84 Y166.703
G0 X93.432 Y166.65
G0 X93.721 Y165.974
G0 X94.047 Y165.547
G0 X140.698 Y141.47
G0 X141.103 Y141.523
G1 X141.315 Y140.991 E1.13664
G1 X141.659 Y140.532 E1.16526
G1 X142.11 Y140.178 E1.19386
G1 X142.636 Y139.953 E1.22241
G1 X143.208 Y139.871 E1.25123
G1 X143.78 Y139.939 E1.27997
G1 X144.313 Y140.152 E1.30861
G1 X144.772 Y140.496 E1.33723
G1 X145.126 Y140.945 E1.36575
G1 X145.351 Y141.472 E1.39434
G1 X145.433 Y142.043 E1.42312
G1 X145.365 Y142.613 E1.45176
G1 X145.153 Y143.149 E1.48051
G1 X144.82 Y143.592 E1.50816
G1 X144.359 Y143.962 E1.53766
G1 X143.831 Y144.187 E1.56629
G1 X143.275 Y144.267 E1.59431
G1 X142.687 Y144.201 E1.62383
G1 X142.155 Y143.988 E1.65242
G1 X141.696 Y143.644 E1.68104
G1 X141.341 Y143.195 E1.7096
G1 X141.117 Y142.668 E1.73817
G1 X141.035 Y142.096 E1.76699
G1 X141.103 Y141.523 E1.79578
G0 X141.177 Y141.337
G0 X140.797 Y141.179
G0 X141.427 Y140.264
G0 X141.958 Y139.859
G0 X142.573 Y139.603
G0 X143.234 Y139.516
G0 X151.128 Y141.47
G0 X151.533 Y141.523
G1 X151.745 Y140.991 E1.82435
G1 X152.089 Y140.532 E1.85297
G1 X152.54 Y140.178 E1.88157
G1 X153.066 Y139.953 E1.91012
G1 X153.638 Y139.871 E1.93895
G1 X154.21 Y139.939 E1.96768
G1 X154.743 Y140.152 E1.99632
G1 X155.202 Y140.496 E2.02494
G1 X155.556 Y140.945 E2.05346
G1 X155.78 Y141.472 E2.08203
G1 X155.863 Y142.043 E2.11082
G1 X155.794 Y142.618 E2.13971
G1 X155.582 Y143.149 E2.16824
G1 X155.238 Y143.608 E2.19685
G1 X154.789 Y143.962 E2.22538
G1 X154.261 Y144.187 E2.25401
G1 X153.69 Y144.269 E2.28279
G1 X153.117 Y144.201 E2.31158
G1 X152.585 Y143.988 E2.34017
G1 X152.126 Y143.644 E2.36879
G1 X151.771 Y143.195 E2.39734
G1 X151.547 Y142.668 E2.42591
G1 X151.466 Y142.102 E2.45444
G1 X151.533 Y141.523 E2.48352
G0 X151.607 Y141.337
G0 X151.227 Y141.179
G0 X151.133 Y141.899
G0 X151.127 Y149.476
G0 X151.532 Y149.528
G1 X151.745 Y148.991 E2.51234
G1 X152.089 Y148.532 E2.54095
G1 X152.54 Y148.178 E2.56956
G1 X153.066 Y147.953 E2.5981
G1 X153.638 Y147.871 E2.62693
G1 X154.21 Y147.939 E2.65567
G1 X154.743 Y148.152 E2.6843
G1 X155.202 Y148.496 E2.71292
G1 X155.238 Y148.532 E2.71546
G1 X155.567 Y148.961 E2.74243
G1 X155.78 Y149.472 E2.77005
G1 X155.863 Y150.043 E2.79884
G1 X155.794 Y150.618 E2.82773
G1 X155.582 Y151.149 E2.85626
G1 X155.238 Y151.608 E2.88487
G1 X154.789 Y151.962 E2.9134
G1 X154.261 Y152.187 E2.94203
G1 X153.69 Y152.269 E2.97081
G1 X153.117 Y152.201 E2.9996
G1 X152.585 Y151.988 E3.02819
G1 X152.126 Y151.644 E3.05681
G1 X151.771 Y151.195 E3.08537
G1 X151.547 Y150.668 E3.11393
G1 X151.468 Y150.112 E3.14195
G1 X151.532 Y149.528 E3.17126
G0 X151.605 Y149.342
G0 X151.224 Y149.184
G0 X151.133 Y149.901
G0 X151.059 Y158.148
G0 X151.465 Y158.096
G1 X151.533 Y157.523 E3.20005
G1 X151.745 Y156.991 E3.22862
G1 X152.089 Y156.532 E3.25724
G1 X152.54 Y156.178 E3.28584
G1 X153.066 Y155.953 E3.31438
G1 X153.638 Y155.871 E3.34321
G1 X154.21 Y155.939 E3.37195
G1 X154.743 Y156.152 E3.40059
G1 X155.202 Y156.496 E3.4292
G1 X155.556 Y156.945 E3.45773
G1 X155.78 Y157.472 E3.4863
G1 X155.863 Y158.043 E3.51509
G1 X155.794 Y158.618 E3.54398
G1 X155.582 Y159.149 E3.5725
G1 X155.238 Y159.608 E3.60112
G1 X154.789 Y159.962 E3.62965
G1 X154.261 Y160.187 E3.65828
G1 X153.69 Y160.269 E3.68706
G1 X153.117 Y160.201 E3.71585
G1 X152.585 Y159.988 E3.74444
G1 X152.126 Y159.644 E3.77305
G1 X151.771 Y159.195 E3.80161
G1 X151.547 Y158.668 E3.83018
G1 X151.465 Y158.096 E3.85901
G0 X151.488 Y157.898
G0 X151.079 Y157.845
G0 X151.197 Y158.731
G0 X151.451 Y159.346
G0 X151.857 Y159.876
G0 X152.388 Y160.281
G0 X152.941 Y160.511
G0 X173.045 Y162.579
G0 X173.455 Y162.579
G1 X173.455 Y159.782 E3.99855
G1 X173.456 Y137.537 E5.10836
G1 X173.535 Y137.4 E5.11625
G1 X173.655 Y137.361 E5.12254
G1 X190.674 Y137.359 E5.97162
G1 X190.816 Y137.417 E5.97928
G1 X190.875 Y137.559 E5.98695
G1 X190.872 Y162.607 E7.2366
G1 X190.788 Y162.744 E7.24462
G1 X190.673 Y162.78 E7.25063
G1 X173.655 Y162.78 E8.09966
G1 X173.506 Y162.714 E8.10779
G1 X173.455 Y162.579 E8.11499
G0 X173.455 Y162.379
G0 X173.045 Y162.379
G0 X173.117 Y163.117
G0 X195.482 Y169.482
G0 X195.439 Y169.89
G1 X196.262 Y170.156 E8.15814
G1 X196.773 Y170.445 E8.18743
G1 X197.059 Y170.615 E8.20403
G1 X197.68 Y171.176 E8.24578
G1 X198.096 Y171.739 E8.2807
G1 X198.579 Y172.375 E8.32055
G1 X198.813 Y172.683 E8.33984
G1 X199.604 Y173.29 E8.38959
G1 X200.516 Y173.667 E8.43882
G1 X201.515 Y173.799 E8.4891
G1 X203.485 Y173.8 E8.58738
G1 X204.484 Y173.668 E8.63765
G1 X205.396 Y173.29 E8.68691
G1 X206.187 Y172.683 E8.73665
G1 X206.79 Y171.896 E8.78611
G1 X207.168 Y170.984 E8.83537
G1 X207.283 Y170.103 E8.87969
G1 X207.3 Y169.346 E8.91747
G1 X207.3 Y130.131 E10.87391
G1 X207.234 Y129.513 E10.90492
G1 X207.168 Y129.014 E10.93003
G1 X206.79 Y128.104 E10.97919
G1 X206.187 Y127.317 E11.02866
G1 X205.396 Y126.71 E11.0784
G1 X204.484 Y126.332 E11.12765
G1 X203.485 Y126.201 E11.17792
G1 X201.512 Y126.2 E11.27636
G1 X200.707 Y126.284 E11.31674
G1 X199.95 Y126.53 E11.35645
G1 X199.266 Y126.929 E11.39595
G1 X198.679 Y127.455 E11.43528
G1 X197.695 Y128.808 E11.51874
G1 X197.045 Y129.397 E11.5625
G1 X196.285 Y129.835 E11.60627
G1 X195.458 Y130.106 E11.64968
G1 X194.593 Y130.199 E11.69309
G1 X190.674 Y130.201 E11.88861
G1 X96.55 Y130.2 E16.58447
G1 X95.662 Y130.295 E16.62903
G1 X94.862 Y130.572 E16.67126
G1 F3902.4 X94.732 Y130.762 E16.68539
G1 F3386.2 X94.269 Y131.031 E16.72326
G1 F3562.2 X93.879 Y131.375 E16.75822
G1 F3568.8 X93.536 Y131.768 E16.79322
G1 F3398.2 X93.265 Y132.229 E16.83091
G1 F3902.4 X93.076 Y132.355 E16.84485
G1 F4800 X92.797 Y133.152 E16.88697
G1 X92.701 Y134.013 E16.9302
G1 X92.7 Y137.134 E17.0859
G1 X92.701 Y165.951 E18.52359
G1 X92.819 Y166.897 E18.57115
G1 X93.094 Y167.616 E18.60956
G1 X93.226 Y167.907 E18.6255
G1 X93.814 Y168.683 E18.67407
G1 X94.605 Y169.29 E18.72382
G1 X95.513 Y169.667 E18.77287
G1 X96.47 Y169.793 E18.82102
G1 X97.22 Y169.799 E18.85844
G1 X99.634 Y169.8 E18.97888
G1 X194.583 Y169.8 E23.7159
G1 X195.439 Y169.89 E23.75884
G0 X195.629 Y169.951
G0 X195.757 Y169.561
G0 X199.946 Y170.468
G0 X200.352 Y170.417
G1 X200.301 Y169.974 E23.78109
G1 X200.366 Y169.532 E23.80338
G1 X200.541 Y169.126 E23.82544
G1 X200.816 Y168.779 E23.84752
G1 X201.171 Y168.515 E23.8696
G1 X201.583 Y168.352 E23.8917
G1 X202.026 Y168.301 E23.91395
G1 X202.468 Y168.366 E23.93624
G1 X202.874 Y168.541 E23.95829
G1 X203.221 Y168.816 E23.98038
G1 X203.485 Y169.171 E24.00246
G1 X203.648 Y169.583 E24.02456
G1 X203.699 Y170.026 E24.04681
G1 X203.634 Y170.468 E24.0691
G1 X203.459 Y170.874 E24.09115
G1 X203.184 Y171.221 E24.11324
G1 X202.829 Y171.485 E24.13531
G1 X202.417 Y171.648 E24.15742
G1 X201.974 Y171.699 E24.17967
G1 X201.532 Y171.634 E24.20195
G1 X201.126 Y171.459 E24.22401
G1 X200.779 Y171.184 E24.2461
G1 X200.515 Y170.829 E24.26817
G1 X200.352 Y170.417 E24.29028
G0 X200.33 Y170.218
G0 X199.92 Y170.27
G0 X199.949 Y130.487
G0 X200.355 Y130.435
G1 X200.301 Y129.974 E24.31343
G1 X200.366 Y129.532 E24.33572
G1 X200.597 Y129.053 E24.36225
G1 X200.816 Y128.779 E24.37975
G1 X201.171 Y128.514 E24.40186
G1 X201.583 Y128.352 E24.42394
G1 X202.026 Y128.301 E24.44619
G1 X202.468 Y128.366 E24.46848
G1 X202.874 Y128.541 E24.49053
G1 X203.221 Y128.816 E24.51262
G1 X203.485 Y129.171 E24.5347
G1 X203.648 Y129.583 E24.5568
G1 X203.699 Y130.026 E24.57905
G1 X203.634 Y130.468 E24.60134
G1 X203.459 Y130.874 E24.62339
G1 X203.184 Y131.221 E24.64548
G1 X202.829 Y131.485 E24.66755
G1 X202.417 Y131.648 E24.68966
G1 X201.974 Y131.699 E24.71191
G1 X201.532 Y131.634 E24.7342
G1 X201.126 Y131.459 E24.75625
G1 X200.779 Y131.184 E24.77834
G1 X200.515 Y130.829 E24.80041
G1 X200.355 Y130.435 E24.82163
G0 X200.332 Y130.237
G0 X199.965 Y130.522
;TYPE:WALL-INNER
G1 X199.9 Y129.996 E24.84807
G1 X199.996 Y129.379 E24.87922
G1 X200.214 Y128.895 E24.90571
G1 X200.528 Y128.498 E24.93096
G1 X200.967 Y128.169 E24.95833
G1 X201.445 Y127.973 E24.9841
G1 X202 Y127.9 E25.01203
G1 X202.621 Y127.996 E25.04338
G1 X203.118 Y128.223 E25.07064
G1 X203.539 Y128.572 E25.09792
G1 X203.85 Y129.006 E25.12456
G1 X204.036 Y129.477 E25.14982
G1 X204.101 Y130.025 E25.17736
G1 X204.004 Y130.62 E25.20743
G1 X203.777 Y131.118 E25.23474
G1 X203.428 Y131.538 E25.26198
G1 X202.981 Y131.855 E25.28932
G1 X202.469 Y132.044 E25.31655
G1 X201.922 Y132.095 E25.34396
G1 X201.38 Y132.004 E25.37138
G1 X200.921 Y131.804 E25.39636
G1 X200.47 Y131.439 E25.4253
G1 X200.145 Y130.981 E25.45332
G1 X199.965 Y130.522 E25.47792
G0 X199.953 Y130.522
G0 X173.117 Y137.023
G0 X173.045 Y137.561
G0 X173.055 Y137.561
G1 X173.101 Y137.329 E25.48972
G1 X173.209 Y137.158 E25.49981
G1 X173.401 Y137.017 E25.51169
G1 X173.655 Y136.961 E25.52467
G1 X190.674 Y136.959 E26.37375
G1 X190.912 Y137.007 E26.38586
G1 X191.098 Y137.133 E26.39707
G1 X191.251 Y137.391 E26.41204
G1 X191.275 Y138.375 E26.46114
G1 X191.272 Y162.619 E27.67068
G1 X191.185 Y162.894 E27.68507
G1 X191.018 Y163.072 E27.69725
G1 X190.777 Y163.172 E27.71026
G1 X190.673 Y163.18 E27.71547
G1 X173.655 Y163.18 E28.5645
G1 X173.4 Y163.123 E28.57754
G1 X173.209 Y162.982 E28.58938
G1 X173.073 Y162.727 E28.6038
G1 X173.055 Y162.579 E28.61124
G1 X173.055 Y159.782 E28.75078
G1 X173.055 Y137.561 E29.85939
G0 X173.045 Y137.561
G0 X153.003 Y139.603
G0 X152.388 Y139.859
G0 X151.857 Y140.264
G0 X151.529 Y140.693
G0 X151.128 Y141.47
G0 X151.136 Y141.471
G1 X151.375 Y140.839 E29.8931
G1 X151.772 Y140.288 E29.92698
G1 X152.296 Y139.861 E29.9607
G1 X152.913 Y139.583 E29.99447
G1 X153.586 Y139.474 E30.02848
G1 X154.262 Y139.542 E30.06238
G1 X154.896 Y139.782 E30.0962
G1 X155.446 Y140.179 E30.13004
G1 X155.873 Y140.701 E30.16368
G1 X156.15 Y141.32 E30.19752
G1 X156.259 Y141.991 E30.23143
G1 X156.19 Y142.67 E30.26548
G1 X155.952 Y143.301 E30.29913
G1 X155.555 Y143.852 E30.33301
G1 X155.033 Y144.279 E30.36666
G1 X154.414 Y144.557 E30.40051
G1 X153.742 Y144.665 E30.43447
G1 X153.065 Y144.598 E30.46841
G1 X152.432 Y144.358 E30.50218
G1 X151.882 Y143.961 E30.53602
G1 X151.454 Y143.439 E30.5697
G1 X151.177 Y142.82 E30.60353
G1 X151.069 Y142.154 E30.63719
G1 X151.136 Y141.471 E30.67143
G0 X151.128 Y141.47
G0 X151.128 Y149.475
G0 X151.135 Y149.476
G1 X151.375 Y148.839 E30.70539
G1 X151.772 Y148.288 E30.73927
G1 X152.296 Y147.861 E30.773
G1 X152.913 Y147.583 E30.80676
G1 X153.586 Y147.474 E30.84077
G1 X154.262 Y147.542 E30.87467
G1 X154.896 Y147.782 E30.90849
G1 X155.446 Y148.179 E30.94233
G1 X155.555 Y148.288 E30.95002
G1 X155.873 Y148.701 E30.97603
G1 X156.15 Y149.32 E31.00986
G1 X156.259 Y149.991 E31.04378
G1 X156.19 Y150.67 E31.07783
G1 X155.952 Y151.301 E31.11147
G1 X155.555 Y151.852 E31.14535
G1 X155.033 Y152.279 E31.179
G1 X154.414 Y152.557 E31.21285
G1 X153.742 Y152.665 E31.24681
G1 X153.065 Y152.598 E31.28075
G1 X152.432 Y152.358 E31.31452
G1 X151.882 Y151.961 E31.34836
G1 X151.454 Y151.439 E31.38204
G1 X151.177 Y150.82 E31.41588
G1 X151.072 Y150.164 E31.44902
G1 X151.135 Y149.476 E31.48349
G0 X151.128 Y149.475
G0 X151.059 Y158.148
G0 X151.068 Y158.148
G1 X151.137 Y157.471 E31.51744
G1 X151.375 Y156.839 E31.55113
G1 X151.772 Y156.288 E31.58501
G1 X152.296 Y155.861 E31.61874
G1 X152.913 Y155.583 E31.6525
G1 X153.586 Y155.474 E31.68651
G1 X154.262 Y155.542 E31.72041
G1 X154.896 Y155.782 E31.75423
G1 X155.446 Y156.179 E31.78807
G1 X155.873 Y156.701 E31.82172
G1 X156.15 Y157.32 E31.85555
G1 X156.259 Y157.991 E31.88946
G1 X156.19 Y158.67 E31.92351
G1 X155.952 Y159.301 E31.95716
G1 X155.555 Y159.852 E31.99104
G1 X155.033 Y160.279 E32.02469
G1 X154.414 Y160.557 E32.05854
G1 X153.742 Y160.665 E32.0925
G1 X153.065 Y160.597 E32.12644
G1 X152.432 Y160.358 E32.1602
G1 X151.882 Y159.961 E32.19404
G1 X151.454 Y159.439 E32.22772
G1 X151.177 Y158.82 E32.26155
G1 X151.068 Y158.148 E32.29552
G0 X151.059 Y158.148
G0 X141.021 Y143.346
G0 X140.767 Y142.731
G0 X140.698 Y141.47
G0 X140.706 Y141.471
G1 X140.945 Y140.839 E32.32923
G1 X141.342 Y140.288 E32.36311
G1 X141.866 Y139.861 E32.39683
G1 X142.483 Y139.583 E32.43059
G1 X143.156 Y139.474 E32.46461
G1 X143.832 Y139.542 E32.4985
G1 X144.466 Y139.782 E32.53232
G1 X145.016 Y140.179 E32.56616
G1 X145.443 Y140.701 E32.59981
G1 X145.721 Y141.32 E32.63366
G1 X145.83 Y141.991 E32.66758
G1 X145.762 Y142.665 E32.70138
G1 X145.523 Y143.301 E32.73527
G1 X145.137 Y143.836 E32.76819
G1 X144.603 Y144.279 E32.8028
G1 X143.983 Y144.557 E32.8367
G1 X143.327 Y144.664 E32.86986
G1 X142.635 Y144.597 E32.90455
G1 X142.002 Y144.358 E32.9383
G1 X141.452 Y143.961 E32.97214
G1 X141.024 Y143.439 E33.00582
G1 X140.747 Y142.82 E33.03965
G1 X140.639 Y142.148 E33.07361
G1 X140.706 Y141.471 E33.10755
G0 X140.698 Y141.47
G0 X96.124 Y130.989
G0 X96.12 Y130.996
G1 X96.618 Y131.224 E33.13488
G1 X97.038 Y131.572 E33.16209
G1 X97.355 Y132.018 E33.18939
G1 X97.545 Y132.531 E33.21668
G1 X97.596 Y133.078 E33.24409
G1 X97.504 Y133.62 E33.27152
G1 X97.302 Y134.081 E33.29663
G1 X96.987 Y134.487 E33.32226
G1 X96.581 Y134.802 E33.3479
G1 X96.12 Y135.004 E33.37301
G1 X95.578 Y135.096 E33.40044
G1 X95.031 Y135.045 E33.42785
G1 X94.518 Y134.855 E33.45514
G1 X94.072 Y134.538 E33.48244
G1 X93.723 Y134.118 E33.50968
G1 X93.496 Y133.621 E33.53694
G1 X93.404 Y133.078 E33.56442
G1 X93.454 Y132.535 E33.59162
G1 X93.469 Y132.481 E33.59442
G1 X93.252 Y133.063 E33.62541
G1 X93.164 Y133.472 E33.64628
G1 X93.101 Y134.05 E33.67529
G1 X93.1 Y137.134 E33.82915
G1 X93.101 Y165.671 E35.25286
G1 X93.152 Y166.333 E35.28599
G1 X93.219 Y166.861 E35.31254
G1 F4860.8 X93.46 Y167.468 E35.34472
G1 X93.404 Y166.922 E35.37176
