;FLAVOR:Marlin
;TIME:650
;Filament used: 1.06464m
;Layer height: 0.2
;MINX:137.216
;MINY:124.828
;MINZ:0.3
;MAXX:160.845
;MAXY:150.907
;MAXZ:16.1
;Generated with Cura_SteamEngine 5.0.0
M140 S60
M105
M190 S60
M104 S220
M105
M109 S220
M82 ;absolute extrusion mode
START
G1 F200 E15 ;extrude 15 mm of feed stock
G1 F200 E13.5 ;make retraction
G92 E0 ;zero the extruded length again
G92 E0
G92 E0
G1 F1500 E-4
;LAYER_COUNT:80
;LAYER:0
M107
;MESH:??????????????.stl
G0 F4800 X147.96 Y145.741 Z0.3
;TYPE:WALL-OUTER
G1 F1500 E0
G1 F4413.8 X147.672 Y145.628 E0.01679
G1 F4800 X141.56 Y134.153 E0.66542
G1 X141.539 Y134.024 E0.67194
G1 X141.642 Y133.881 E0.68073
G1 X152.675 Y128.003 E1.30442
G1 X150.982 Y124.828 E1.48393
G1 X137.638 Y131.94 E2.23832
G1 X145.53 Y146.748 E3.07546
G1 X145.931 Y147.172 E3.10458
G1 X146.025 Y147.263 E3.11111
G1 X146.256 Y147.222 E3.12281
G1 X147.365 Y146.632 E3.18548
G1 F4413.8 X148.181 Y146.157 E3.23671
G1 F4076.4 X152.767 Y143.715 E3.54193
G1 X153.235 Y143.464 E3.57313
G1 F4085.1 X153.704 Y143.212 E3.60434
G1 F4102.6 X154.172 Y142.96 E3.63536
G1 F4111.3 X154.641 Y142.708 E3.66638
G1 F4120.2 X155.11 Y142.456 E3.69732
G1 F4137.9 X155.578 Y142.204 E3.72808
G1 F4146.9 X156.047 Y141.952 E3.75883
G1 F4155.8 X156.516 Y141.7 E3.78951
G1 F4173.9 X156.984 Y141.448 E3.82
G1 F4183 X157.453 Y141.196 E3.85048
G1 F4192.1 X157.922 Y140.944 E3.8809
G1 F4210.5 X158.39 Y140.692 E3.91113
G1 X158.533 Y140.515 E3.92407
G1 X158.533 Y140.116 E3.94676
G1 X158.173 Y140.291 E3.96953
G1 X157.704 Y140.541 E3.99976
G1 F4192.1 X157.235 Y140.792 E4.03014
G1 F4183 X156.766 Y141.043 E4.0606
G1 F4173.9 X156.297 Y141.294 E4.09112
G1 F4155.8 X155.827 Y141.544 E4.12179
G1 F4146.9 X155.358 Y141.795 E4.15251
G1 F4137.9 X154.889 Y142.046 E4.1833
G1 F4120.2 X154.42 Y142.297 E4.21421
G1 F4111.3 X153.951 Y142.548 E4.2452
G1 F4102.6 X153.481 Y142.798 E4.27627
G1 F4085.1 X153.012 Y143.049 E4.30745
G1 F4076.4 X152.543 Y143.3 E4.3387
G1 X147.96 Y145.741 E4.64374
G0 F4800 X147.774 Y145.668
G0 X147.351 Y145.893
G0 X141.199 Y134.345
G0 X141.207 Y134.341
;TYPE:WALL-INNER
G1 X141.145 Y133.957 E4.66315
G1 X141.281 Y133.667 E4.67913
G1 X141.454 Y133.528 E4.6902
G1 X152.134 Y127.838 E5.29393
G1 X150.817 Y125.369 E5.43354
G1 X138.179 Y132.105 E6.14802
G1 X145.868 Y146.532 E6.96363
G1 X146.15 Y146.825 E6.98391
G1 X147.782 Y145.957 E7.07614
G1 X147.319 Y145.816 E7.10028
G1 X141.207 Y134.341 E7.74892
G0 X141.018 Y133.393
;TYPE:SKIN
G1 X141.273 Y133.192 E7.76512
G1 X151.619 Y127.68 E8.34996
G1 X151.139 Y126.783 E8.40072
G1 X150.659 Y125.884 E8.45156
G1 X138.694 Y132.263 E9.12804
G1 X146.171 Y146.29 E9.92106
G1 X146.228 Y146.352 E9.92526
G1 X146.964 Y145.96 E9.96686
G1 X140.872 Y134.527 E10.61318
G1 X140.772 Y133.955 E10.64215
G1 X140.788 Y133.839 E10.64799
G1 X141.018 Y133.393 E10.67303
G0 X150.514 Y126.189
G1 X150.687 Y126.362 E10.68523
G0 X150.144 Y126.386
G1 X151.335 Y127.576 E10.76923
G0 X150.984 Y127.791
G1 X149.775 Y126.582 E10.85453
G0 X149.406 Y126.779
G1 X150.615 Y127.987 E10.9398
G0 X150.246 Y128.184
G1 X149.037 Y126.975 E11.0251
G0 X148.669 Y127.173
G1 X149.876 Y128.38 E11.11026
G0 X149.507 Y128.577
G1 X148.3 Y127.369 E11.19545
G0 X147.93 Y127.566
G1 X149.138 Y128.774 E11.28068
G0 X148.769 Y128.97
G1 X147.561 Y127.762 E11.36592
G0 X147.192 Y127.959
G1 X148.4 Y129.167 E11.45115
G0 X148.031 Y129.363
G1 X146.823 Y128.156 E11.53634
G0 X146.455 Y128.353
G1 X147.662 Y129.56 E11.6215
G0 X147.293 Y129.756
G1 X146.086 Y128.549 E11.70666
G0 X145.717 Y128.746
G1 X146.924 Y129.953 E11.79182
G0 X146.554 Y130.15
G1 X145.347 Y128.943 E11.87698
G0 X144.978 Y129.139
G1 X146.185 Y130.346 E11.96214
G0 X145.816 Y130.543
G1 X144.61 Y129.336 E12.04727
G0 X144.241 Y129.533
G1 X145.447 Y130.739 E12.13236
G0 X145.079 Y130.937
G1 X143.872 Y129.73 E12.21752
G0 X143.503 Y129.926
G1 X144.71 Y131.133 E12.30268
G0 X144.341 Y131.33
G1 X143.133 Y130.123 E12.38788
G0 X142.764 Y130.319
G1 X143.971 Y131.526 E12.47304
G0 X143.602 Y131.723
G1 X142.396 Y130.517 E12.55813
G0 X142.027 Y130.713
G1 X143.233 Y131.919 E12.64322
G0 X142.864 Y132.116
G1 X141.658 Y130.91 E12.72831
G0 X141.289 Y131.106
G1 X142.495 Y132.313 E12.81343
G0 X142.126 Y132.509
G1 X140.92 Y131.303 E12.89852
G0 X140.55 Y131.499
G1 X141.757 Y132.706 E12.98368
G0 X141.388 Y132.902
G1 X140.182 Y131.697 E13.06874
G0 X139.813 Y131.893
G1 X141.043 Y133.123 E13.15552
G0 X140.773 Y133.419
G1 X139.444 Y132.09 E13.24929
G0 X139.075 Y132.286
G1 X140.598 Y133.81 E13.35678
G0 X140.641 Y134.418
G1 X139.416 Y133.193 E13.44321
G1 X139.346 Y133.123
G0 X140.061 Y134.404
G1 X141.171 Y135.514 E13.52152
G0 X140.707 Y135.616
G1 X141.815 Y136.724 E13.5997
G0 X141.353 Y136.827
G1 X142.461 Y137.936 E13.67791
G0 X141.999 Y138.039
G1 X143.106 Y139.146 E13.75602
G0 X142.645 Y139.251
G1 X143.751 Y140.357 E13.83405
G0 X143.291 Y140.463
G1 X144.396 Y141.567 E13.91198
G0 X143.937 Y141.674
G1 X145.041 Y142.778 E13.98987
G0 X144.582 Y142.885
G1 X145.685 Y143.988 E14.06769
G0 X145.229 Y144.097
G1 X146.331 Y145.2 E14.14548
G0 X145.874 Y145.309
G1 X146.529 Y145.963 E14.19166
G1 X146.599 Y146.033
;MESH:NONMESH
G0 F600 X146.599 Y146.033 Z0.5
G0 F4800 X147.406 Y145.996
G0 X147.944 Y145.71
;TIME_ELAPSED:10.093684
;LAYER:1
M106 S255
;TYPE:WALL-OUTER
;MESH:??????????????.stl
G1 F4576 X147.764 Y145.715 E14.19765
G1 X147.633 Y145.554 E14.20455
G1 X141.56 Y134.152 E14.63422
G1 X141.537 Y134.037 E14.63812
G1 X141.613 Y133.9 E14.64333
G1 X141.642 Y133.881 E14.64449
G1 X152.675 Y128.003 E15.06028
G1 X150.982 Y124.828 E15.17995
G1 X137.401 Y132.066 E15.6918
G1 X145.294 Y146.881 E16.25012
G1 X145.701 Y147.478 E16.27415
G1 X146.03 Y147.724 E16.28782
G1 X146.263 Y147.78 E16.29579
G1 X146.522 Y147.702 E16.30478
G1 X158.772 Y141.196 E16.76612
G1 X158.915 Y141.065 E16.77257
G1 X158.996 Y140.865 E16.77975
G1 X158.945 Y140.425 E16.79448
G1 X158.769 Y139.942 E16.81158
G1 X147.944 Y145.71 E17.21954
G0 F4800 X147.764 Y145.715
G0 X147.752 Y145.7
G0 X148.119 Y146.04
;TYPE:WALL-INNER
G1 F4907.2 X147.595 Y146.078 E17.23583
G1 F4576 X147.279 Y145.742 E17.25117
G1 X141.207 Y134.34 E17.68083
G1 X141.139 Y133.997 E17.69246
G1 X141.242 Y133.717 E17.70238
G1 X141.454 Y133.528 E17.71183
G1 X152.134 Y127.838 E18.11432
G1 X150.817 Y125.369 E18.20739
G1 X140.14 Y131.06 E18.6098
G1 X137.942 Y132.231 E18.69264
G1 X145.637 Y146.674 E19.23694
G1 X145.994 Y147.198 E19.25803
G1 X146.267 Y147.37 E19.26876
G1 X146.904 Y147.046 E19.29253
G1 X147.609 Y146.674 E19.31904
G1 F4907.2 X148.28 Y146.345 E19.34222
G1 F5290.1 X149.013 Y145.956 E19.36609
G1 X149.747 Y145.566 E19.39001
G1 F5274.9 X150.481 Y145.176 E19.41399
G1 F5259.7 X151.215 Y144.786 E19.43804
G1 X151.949 Y144.396 E19.46209
G1 F5244.7 X152.683 Y144.006 E19.48621
G1 F5229.7 X153.416 Y143.616 E19.51037
G1 X154.15 Y143.226 E19.53456
G1 F5214.8 X154.884 Y142.836 E19.55882
G1 F5200 X155.618 Y142.446 E19.58315
G1 X156.352 Y142.056 E19.60748
G1 F5185.2 X157.086 Y141.666 E19.63187
G1 F5170.6 X157.819 Y141.276 E19.65631
G1 X158.553 Y140.886 E19.68078
G1 F5156 X158.608 Y140.796 E19.68389
G1 X158.57 Y140.476 E19.69341
G1 F5170.6 X157.824 Y140.873 E19.71828
G1 X157.077 Y141.271 E19.74319
G1 F5185.2 X156.33 Y141.668 E19.76802
G1 F5200 X155.583 Y142.066 E19.7928
G1 X154.836 Y142.463 E19.81756
G1 F5214.8 X154.09 Y142.861 E19.84224
G1 F5229.7 X153.343 Y143.259 E19.86687
G1 X152.596 Y143.656 E19.89149
G1 F5244.7 X151.849 Y144.054 E19.91605
G1 F5259.7 X151.102 Y144.451 E19.94053
G1 X150.356 Y144.849 E19.96499
G1 F5274.9 X149.609 Y145.247 E19.98942
G1 F5290.1 X148.862 Y145.644 E20.01375
G1 X148.115 Y146.042 E20.03811
G0 F4800 X148.131 Y146.074
G0 X147.629 Y146.26
G0 X141.01 Y133.838
G0 X140.907 Y133.545
;TYPE:SKIN
G1 F4576 X141.243 Y133.212 E20.05384
G1 X141.272 Y133.193 E20.05499
G1 X151.619 Y127.68 E20.44494
G1 X151.139 Y126.783 E20.47877
G1 X150.659 Y125.884 E20.51267
G1 X138.457 Y132.389 E20.97258
G1 X145.943 Y146.439 E21.50208
G1 X146.256 Y146.904 E21.52072
G1 X146.297 Y146.939 E21.52251
G1 X147.369 Y146.372 E21.56285
G1 X146.98 Y145.992 E21.58093
G1 X140.875 Y134.526 E22.01298
G1 X140.765 Y134.018 E22.03027
G1 X140.907 Y133.545 E22.0467
G0 F4800 X138.842 Y132.686
G1 F4576 X139.436 Y132.092 E22.07464
G1 X139.506 Y132.022
G0 F4800 X139.039 Y133.055
G1 F4576 X140.647 Y131.446 E22.1503
G1 X140.717 Y131.376
G0 F4800 X141.858 Y130.802
G1 F4576 X139.235 Y133.424 E22.27365
G0 F4800 X139.432 Y133.793
G1 F4576 X143.069 Y130.156 E22.44472
G1 X143.139 Y130.086
G0 F4800 X144.28 Y129.51
G1 F4576 X139.629 Y134.162 E22.66352
G0 F4800 X139.826 Y134.531
G1 F4576 X140.629 Y133.728 E22.70129
G0 F4800 X140.623 Y134.299
G1 F4576 X140.022 Y134.9 E22.72956
G0 F4800 X140.219 Y135.269
G1 F4576 X140.757 Y134.731 E22.75486
G0 F4800 X140.953 Y135.101
G1 F4576 X140.415 Y135.638 E22.78014
G0 F4800 X140.612 Y136.007
G1 F4576 X141.149 Y135.47 E22.8054
G0 F4800 X141.346 Y135.839
G1 F4576 X140.809 Y136.376 E22.83066
G0 F4800 X141.005 Y136.745
G1 F4576 X141.542 Y136.208 E22.85592
G0 F4800 X141.739 Y136.577
G1 F4576 X141.202 Y137.115 E22.8812
G0 F4800 X141.398 Y137.484
G1 F4576 X141.936 Y136.946 E22.90651
G0 F4800 X142.132 Y137.315
G1 F4576 X141.595 Y137.853 E22.93179
G0 F4800 X141.791 Y138.222
G1 F4576 X142.329 Y137.685 E22.95707
G0 F4800 X142.525 Y138.054
G1 F4576 X141.988 Y138.591 E22.98233
G0 F4800 X142.185 Y138.959
G1 F4576 X142.722 Y138.423 E23.00757
G0 F4800 X142.919 Y138.792
G1 F4576 X142.382 Y139.329 E23.03283
G0 F4800 X142.578 Y139.698
G1 F4576 X143.115 Y139.161 E23.05809
G0 F4800 X143.311 Y139.531
G1 F4576 X142.775 Y140.067 E23.0833
G0 F4800 X142.972 Y140.436
G1 F4576 X143.508 Y139.9 E23.10851
G0 F4800 X143.704 Y140.269
G1 F4576 X143.168 Y140.805 E23.13372
G0 F4800 X143.365 Y141.174
G1 F4576 X143.901 Y140.638 E23.15893
G0 F4800 X144.097 Y141.007
G1 F4576 X143.561 Y141.543 E23.18414
G0 F4800 X143.758 Y141.912
G1 F4576 X144.294 Y141.376 E23.20936
G0 F4800 X144.49 Y141.745
G1 F4576 X143.954 Y142.281 E23.23457
G0 F4800 X144.151 Y142.651
G1 F4576 X144.687 Y142.115 E23.25978
G0 F4800 X144.884 Y142.484
G1 F4576 X144.348 Y143.02 E23.28499
G0 F4800 X144.545 Y143.388
G1 F4576 X145.08 Y142.853 E23.31016
G0 F4800 X145.277 Y143.222
G1 F4576 X144.741 Y143.757 E23.33534
G0 F4800 X144.938 Y144.126
G1 F4576 X145.473 Y143.592 E23.36049
G0 F4800 X145.669 Y143.961
G1 F4576 X145.135 Y144.495 E23.3856
G0 F4800 X145.331 Y144.864
G1 F4576 X145.866 Y144.33 E23.41075
G0 F4800 X146.062 Y144.699
G1 F4576 X145.528 Y145.234 E23.43589
G0 F4800 X145.724 Y145.603
G1 F4576 X146.259 Y145.068 E23.46105
G0 F4800 X146.455 Y145.437
G1 F4576 X145.921 Y145.972 E23.48619
G0 F4800 X146.12 Y146.339
G1 F4576 X146.652 Y145.806 E23.51124
G0 F4800 X146.868 Y146.156
G1 F4576 X146.347 Y146.677 E23.53575
G0 F4800 X141.01 Y133.838
G0 X141.528 Y132.829
G1 F4576 X145.492 Y128.865 E23.7222
G1 X145.562 Y128.795
G0 F4800 X146.703 Y128.219
G1 F4576 X142.738 Y132.184 E23.9087
G1 X142.668 Y132.254
G0 F4800 X143.949 Y131.539
G1 F4576 X147.914 Y127.574 E24.0952
G1 X147.984 Y127.504
G0 F4800 X149.125 Y126.928
G1 F4576 X145.159 Y130.894 E24.28175
G1 X145.089 Y130.964
G0 F4800 X146.371 Y130.249
G1 F4576 X150.337 Y126.282 E24.46832
G0 F4800 X150.733 Y126.451
G1 F4576 X147.581 Y129.604 E24.61661
G1 X147.511 Y129.674
G0 F4800 X148.792 Y128.959
G1 F4576 X150.931 Y126.82 E24.71722
G0 F4800 X151.127 Y127.189
G1 F4576 X150.002 Y128.314 E24.77014
G1 X149.932 Y128.384
G0 F4800 X151.213 Y127.669
G1 F4576 X151.325 Y127.557 E24.7754
;MESH:NONMESH
G0 F600 X151.325 Y127.557 Z0.7
G0 F4800 X141.01 Y133.838
G0 X147.629 Y146.26
G0 X148.136 Y146.071
G0 X147.944 Y145.71
;TIME_ELAPSED:16.758112
;LAYER:2
;TYPE:WALL-OUTER
;MESH:??????????????.stl
G1 X147.788 Y145.724 E24.78061
G1 X147.65 Y145.586 E24.7871
G1 X141.56 Y134.153 E25.21795
G1 X141.537 Y134.043 E25.22169
G1 X141.613 Y133.9 E25.22707
G1 X141.642 Y133.881 E25.22823
G1 X152.675 Y128.003 E25.64402
G1 X150.982 Y124.828 E25.76369
G1 X137.297 Y132.121 E26.27946
G1 X145.192 Y146.94 E26.83792
G1 X145.547 Y147.522 E26.8606
G1 X145.907 Y147.887 E26.87765
G1 X146.29 Y148.081 E26.89193
G1 X146.443 Y148.118 E26.89717
G1 X146.725 Y148.026 E26.90703
G1 X147.937 Y147.38 E26.95271
G1 X158.869 Y141.537 E27.36499
G1 X159.078 Y141.371 E27.37387
G1 X159.167 Y141.157 E27.38157
G1 X159.177 Y140.798 E27.39352
G1 X159.066 Y140.295 E27.41065
G1 X158.883 Y139.882 E27.42568
G1 X147.944 Y145.71 E27.83792
G0 X147.788 Y145.724
G0 X147.757 Y145.693
G0 X148.163 Y146.122
;TYPE:WALL-INNER
G1 F4111.3 X147.666 Y146.105 E27.85723
G1 F4800 X147.337 Y145.847 E27.87114
G1 X147.296 Y145.774 E27.87392
G1 X141.207 Y134.341 E28.30475
G1 X141.138 Y134.014 E28.31587
G1 X141.228 Y133.739 E28.32549
G1 X141.454 Y133.528 E28.33578
G1 X152.134 Y127.838 E28.73826
G1 X150.817 Y125.369 E28.83134
G1 X140.14 Y131.06 E29.23375
G1 X137.839 Y132.286 E29.32047
G1 X145.54 Y146.742 E29.86525
G1 X145.865 Y147.274 E29.88598
G1 X146.206 Y147.599 E29.90165
G1 X146.446 Y147.708 E29.91042
G1 X147.049 Y147.4 E29.93294
G1 X147.749 Y147.028 E29.9593
G1 F4111.3 X148.414 Y146.594 E29.99014
G1 F3595.5 X149.26 Y146.143 E30.03271
G1 X150.106 Y145.691 E30.0753
G1 F3602.3 X150.952 Y145.239 E30.11781
G1 F3609 X151.798 Y144.788 E30.16021
G1 X152.644 Y144.336 E30.20264
G1 F3615.8 X153.49 Y143.884 E30.245
G1 F3622.6 X154.336 Y143.432 E30.28727
G1 X155.182 Y142.981 E30.32952
G1 F3629.5 X156.028 Y142.529 E30.37171
G1 F3636.4 X156.874 Y142.077 E30.41382
G1 X157.72 Y141.626 E30.45591
G1 F3643.3 X158.566 Y141.174 E30.49794
G1 X158.698 Y141.076 E30.50514
G1 X158.714 Y140.784 E30.51796
G1 X158.65 Y140.531 E30.52939
G1 X158.321 Y140.706 E30.54572
G1 X157.475 Y141.157 E30.58773
G1 F3636.4 X156.629 Y141.608 E30.62982
G1 X155.783 Y142.059 E30.67191
G1 F3629.5 X154.936 Y142.51 E30.71412
G1 F3622.6 X154.09 Y142.962 E30.75639
G1 X153.244 Y143.413 E30.79864
G1 F3615.8 X152.398 Y143.864 E30.84097
G1 F3609 X151.551 Y144.315 E30.88342
G1 X150.705 Y144.766 E30.92583
G1 F3602.3 X149.859 Y145.218 E30.96834
G1 F3595.5 X149.012 Y145.669 E31.01095
G1 X148.166 Y146.12 E31.05352
G0 F4800 X147.629 Y146.26
G0 X140.885 Y133.579
;TYPE:SKIN
G1 X141.243 Y133.212 E31.07057
G1 X141.272 Y133.193 E31.07172
G1 X151.619 Y127.68 E31.46167
G1 X151.139 Y126.783 E31.4955
G1 X150.659 Y125.884 E31.5294
G1 X138.352 Y132.444 E31.99325
G1 X145.868 Y146.546 E32.52475
G1 X146.132 Y146.978 E32.54158
G1 X146.446 Y147.291 E32.55633
G1 X147.554 Y146.701 E32.59808
G1 X147.816 Y146.498 E32.60911
G1 X147.486 Y146.435 E32.62028
G1 X147.059 Y146.098 E32.63837
G1 X146.951 Y145.931 E32.64499
G1 X140.875 Y134.527 E33.07476
G1 X140.764 Y134.039 E33.09141
G1 X140.885 Y133.579 E33.10723
G0 X150.514 Y126.189
G1 X150.687 Y126.362 E33.11537
G0 X150.144 Y126.386
G1 X151.335 Y127.576 E33.17136
G0 X150.984 Y127.791
G1 X149.775 Y126.582 E33.22823
G0 X149.406 Y126.779
G1 X150.615 Y127.987 E33.28507
G0 X150.246 Y128.184
G1 X149.037 Y126.975 E33.34194
G0 X148.668 Y127.172
G1 X149.876 Y128.38 E33.39876
G0 X149.507 Y128.577
G1 X148.299 Y127.369 E33.45558
G0 X147.93 Y127.566
G1 X149.138 Y128.774 E33.5124
G0 X148.769 Y128.97
G1 X147.561 Y127.762 E33.56922
G0 X147.192 Y127.959
G1 X148.4 Y129.167 E33.62605
G0 X148.031 Y129.363
G1 X146.823 Y128.156 E33.68284
G0 X146.454 Y128.352
G1 X147.662 Y129.56 E33.73966
G0 X147.293 Y129.756
G1 X146.085 Y128.549 E33.79646
G0 X145.716 Y128.745
G1 X146.924 Y129.953 E33.85328
G0 X146.554 Y130.15
G1 X145.347 Y128.942 E33.91008
G0 X144.978 Y129.139
G1 X146.186 Y130.347 E33.9669
G0 X145.817 Y130.543
G1 X144.609 Y129.336 E34.0237
G0 X144.24 Y129.532
G1 X145.448 Y130.74 E34.08052
G0 X145.079 Y130.937
G1 X143.871 Y129.729 E34.13734
G0 X143.502 Y129.925
G1 X144.71 Y131.133 E34.19416
